!!!COM:	Bach, Johann Sebastian
!!!OMV:	Herzlich lieb hab ich dich, o Herr
!!!OTL:	Herzlich lieb hab ich dich, o Herr
**kern	**fb	**kern	**kern	**kern	**kern
*part5	*part5	*part4	*part3	*part2	*part1
*staff5	*	*staff4	*staff3	*staff2	*staff1
*I"Continuo	*	*I"Voice	*I"Voice	*I"Voice	*I"Voice
*I'Cont.	*	*I'V	*I'V	*I'V	*I'V
*clefF4	*	*clefF4	*clefGv2	*clefG2	*clefG2
*Trd0c0	*	*	*	*	*
*k[f#c#]	*	*k[f#c#]	*k[f#c#]	*k[f#c#]	*k[f#c#]
*M4/4	*	*M4/4	*M4/4	*M4/4	*M4/4
4D	.	4D	8AL	4f#	4dd
.	.	.	8BJ	.	.
=2	=2	=2	=2	=2	=2
4AA	5	4AA	4c#	8eL	4cc#
.	6	.	.	8f#J	.
4BB	6	4BB	4d	8gL	4b
.	5	.	.	8f#J	.
4C#	6 5	4C#	8eL	4e	4a
.	.	.	8AJ	.	.
4D	4	4D	4A	4d	8gL
.	3	.	.	.	8f#J
=3	=3	=3	=3	=3	=3
8GGL	9	8GGL	4A	4d	4b
8AAJ	.	8AAJ	.	.	.
8BBL	6	8BBL	4G	4d	4b
8C#J	.	8C#J	.	.	.
4D;	.	4D;	4F#;	4d;	4a;
4BB	5	4BB	8F#L	8f#L	4dd
.	#6\	.	8G#XJ	8e#XJ	.
=4	=4	=4	=4	=4	=4
4F#	8	4F#	4A	8f#L	4cc#
.	7	.	.	8enJ	.
4G	5	4Gn	4B	8dL	4b
.	6	.	.	8eJ	.
4A	6	4A	4c#	8f#L	4a
.	5	.	.	8eJ	.
8BL	6	8BL	8dL	8dL	8gL
8AJ	6	8AJ	8c#J	8f#J	8f#J
=5	=5	=5	=5	=5	=5
4G#X	7	4G#X	4B	4f#	4b
4C#	7 #	4C#	4c#	4e#X	4b
4F#;	.	4F#;	4c#;	4f#;	4a;
4D	.	4D	8dL	8f#L	4a
.	.	.	8c#J	8enJ	.
=6	=6	=6	=6	=6	=6
!!linebreak:original
4G	.	4G	8BL	8dL	4b
.	.	.	8gJ	8bJ	.
4A	8 6	4A	8f#L	8aL	4cc#
.	7 5	.	8eJ	8gJ	.
4B	5 3	4B	4d	8f#L	8ddL
.	6 4	.	.	8gJ	8eeJ
8AL	6 4	8AL	4d	8aL	4ff#
8GJ	.	8GJ	.	8bJ	.
=	=	=	=	=	=
4A	5 4	4A	4d	8eL	8eeL
.	.	.	.	8f#J	8ddJ
4AA	3	4AA	4c#	4g	4ee
4D;	.	4D;	4A;	4f#;	4dd;
=7:|!	=7:|!	=7:|!	=7:|!	=7:|!	=7:|!
8dL	.	8dL	8f#L	4a	4dd
8c#J	.	8c#J	8eJ	.	.
=8	=8	=8	=8	=8	=8
4B	7	4B	4d	8aL	4dd
.	6	.	.	8gJ	.
4A#X	7 5	4A#X	4c#	8gL	4ee
.	6	.	.	8f#J	.
8BL	.	8BL	8BL	4f#	4dd
8AnJ	.	8AnJ	8c#J	.	.
8G#XL	6	8G#XL	4d	4e	8bL
8F#J	.	8F#J	.	.	8cc#J
=9	=9	=9	=9	=9	=9
8EL	7 #	8EL	8G#XL	4e	4dd
8F#J	.	8F#J	8AJ	.	.
8G#XL	6 5	8G#XL	4B	4e	4dd
8EJ	.	8EJ	.	.	.
4A;	.	4A;	4A;	4e;	4cc#;
8AL	.	8AL	4A	4e	4cc#
8GnJ	.	8GnJ	.	.	.
=10	=10	=10	=10	=10	=10
8F#L	6	8F#L	4A	4f#	4dd
8EJ	.	8EJ	.	.	.
8DL	4 5 2	8DL	4A	4g	4ee
8C#J	.	8C#J	.	.	.
4D	.	4D	4A	4f#	4dd
4E	5 #	4E	4G#X	4e	8bL
.	6	.	.	.	8cc#J
=11	=11	=11	=11	=11	=11
!!pagebreak:original
8BBL	5	8BBL	4F#	8dL	4dd
8C#J	.	8C#J	.	8eJ	.
8DL	6	8DL	4B	4f#	4dd
8EJ	.	8EJ	.	.	.
4F#;	#	4F#;	4A#X;	4f#;	4cc#;
4D#X	6	4D#X	4B	4f#	4ff#
=12	=12	=12	=12	=12	=12
4E	.	4E	4B	4e	8ggL
.	.	.	.	.	8ff#J
8AL	.	8AnL	4c#	4e	4ee
8GJ	.	8GJ	.	.	.
4F#	8 5	4F#	4c#	8aL	8ff#L
.	7	.	.	8gJ	8eeJ
8BL	5	8BL	8dnL	4f#	4dd
8AJ	.	8AJ	8c#J	.	.
=13	=13	=13	=13	=13	=13
4G#X	6 5	4G#X	4B	4e	4dd
4A	.	4A	4A	4e	4cc#
4D;	.	4D;	4A;	4f#;	4dd;
4E	.	4E	4e	4g	4cc#
=14	=14	=14	=14	=14	=14
8F#L	6	8F#L	8AL	4f#	4dd
8G#XJ	6 5	8G#XJ	8BJ	.	.
4A	5	4A	4c#	8eL	4cc#
.	6	.	.	8f#J	.
4E#X	7 5	4E#X	4d	4g#X	4b
8F#L	.	8F#L	4c#	4f#	4a
8EnJ	.	8EnJ	.	.	.
=15	=15	=15	=15	=15	=15
4D#X	6 5	4D#X	4B	4f#	4a
4E	#	4E	4B	4e	4g#X
4AA;	.	4AA;	4c#;	4e;	4a;
4Dn	5	4Dn	8AL	4dd	4ff#
.	6	.	8BJ	.	.
=16	=16	=16	=16	=16	=16
4C#	#6\	4C#	4c#	4a#X	4ee
4BB	.	4BB	4F#	4b	4dd
4F#;	#	4F#;	4f#;	4a#;	4cc#;
4A#X	6	4A#X	8f#L	4cc#	4ff#
.	.	.	8eJ	.	.
=17	=17	=17	=17	=17	=17
!!linebreak:original
4B	6	4B	4d	4b	8ggL
.	5	.	.	.	8ff#J
4c#	7	4c#	4e	8bL	4ee
.	6	.	.	8anJ	.
4d	.	4d	4d	4a	8ff#L
.	.	.	.	.	8eeJ
4F#	6	4F#	8dL	4a	4dd
.	.	.	8c#J	.	.
=18	=18	=18	=18	=18	=18
4G#X	6 5	4G#X	4B	4e	4dd
4A#X	6 5	4A#X	4c#	4f#	4cc#
4B;	.	4B;	4B;	4f#;	4dd;
4F#	6	4F#	8dL	4an	4dd
.	nr5	.	8cnJ	.	.
=19	=19	=19	=19	=19	=19
8GL	.	8GnL	4B	4a	4dd
8AJ	.	8AnJ	.	.	.
4B	6	4B	4B	8gL	4dd
.	5	.	.	8f#J	.
4C#	7 5	4C#	8BL	4g	4ee
.	6	.	8AJ	.	.
4D	.	4D	4A	4f#	4dd
=20	=20	=20	=20	=20	=20
4A	4	4A	4A	8eL	4dd
.	.	.	.	8dJ	.
4AA	3	4AA	4A	4e	4cc#
4DD;	.	4D;	4A;	4f#;	4dd;
=||	=||	=||	=||	=||	=||
*-	*-	*-	*-	*-	*-
!!!system-decoration: s1,s2,s3,s4,s5
